src/actions/24/im-yahoo.svg

<svg xmlns="http://www.w3.org/2000/svg" viewBox="0 0 24 24">
  <defs id="defs3051">
    <style type="text/css" id="current-color-scheme">
      .ColorScheme-Text {
        color:#363636;
      }
      </style>
  </defs>
 <path style="fill:currentColor;fill-opacity:1;stroke:none" 
     d="M 4 7.0332031 L 4.0136719 7.7539062 L 6.1210938 8.0292969 C 6.6989136 8.5316969 9.9124437 12.250178 10.402344 13.205078 L 10.451172 15.869141 C 10.137132 16.283031 8.2167969 16.197266 8.2167969 16.197266 L 8.0527344 16.966797 C 8.0527344 16.966797 15.249659 16.822603 15.287109 16.90625 C 15.269109 16.81035 15.300781 16.185547 15.300781 16.185547 L 12.964844 16.123047 C 12.964844 16.123047 12.812678 14.224531 12.925781 13.119141 C 14.458311 11.422991 17.193359 9.5078125 17.193359 9.5078125 L 19.050781 9.1914062 L 19.478516 8.4472656 L 13.154297 8.4082031 L 13.318359 9.1796875 C 13.318359 9.1796875 15.047908 9.3179 15.236328 9.46875 C 15.211228 9.84567 12.244141 12.222656 12.244141 12.222656 L 9 7.8535156 L 11.273438 7.6777344 L 11.373047 7.1347656 L 4 7.0332031 z M 18.330078 11.509766 L 18.345703 15.576172 L 19.039062 15.667969 L 20 11.736328 L 18.330078 11.509766 z M 18.197266 16.025391 L 18.083984 16.828125 L 18.931641 16.966797 L 19.058594 16.121094 L 18.197266 16.025391 z "
     class="ColorScheme-Text"
     />
</svg>

<svg xmlns="http://www.w3.org/2000/svg" viewBox="0 0 24 24">
    <path d="m4 7.033.014.72 2.107.276c.578.503 3.791 4.221 4.281 5.176l.05 2.664c-.315.414-2.235.328-2.235.328l-.164.77s7.197-.144 7.234-.06c-.018-.097.014-.721.014-.721l-2.336-.063s-.152-1.898-.04-3.004c1.533-1.696 4.268-3.611 4.268-3.611l1.858-.317.428-.744-6.325-.039.164.772s1.73.138 1.918.289c-.025.377-2.992 2.754-2.992 2.754L9 7.853l2.273-.175.1-.543L4 7.033zm14.33 4.477.016 4.066.693.092.961-3.932-1.67-.226zm-.133 4.515-.113.803.848.139.127-.846-.862-.096z" style="fill:currentColor;fill-opacity:1;stroke:none;color:#050505;opacity:.7"/>
</svg>
